public/logo.svg

<svg width="200" height="33" viewBox="0 0 200 33" fill="none" xmlns="http://www.w3.org/2000/svg">
<path d="M32.182 16.5704C32.182 25.5285 25.0714 32.7904 16.3 32.7904C7.5286 32.7904 0.417969 25.5285 0.417969 16.5704C0.417969 7.61239 7.5286 0.350464 16.3 0.350464C25.0714 0.350464 32.182 7.61239 32.182 16.5704Z" fill="#EAEAEA"/>
<path d="M191.501 28.7265C190.18 28.7265 188.997 28.5177 187.953 28.1001C186.93 27.6616 186.057 27.0665 185.332 26.3149C184.629 25.5632 184.086 24.6654 183.702 23.6214C183.34 22.5774 183.159 21.429 183.159 20.1762C183.159 18.9443 183.34 17.8064 183.702 16.7624C184.086 15.7184 184.629 14.8206 185.332 14.0689C186.057 13.3172 186.93 12.7326 187.953 12.315C188.997 11.8765 190.18 11.6573 191.501 11.6573C192.822 11.6573 193.994 11.8765 195.017 12.315C196.061 12.7326 196.935 13.3172 197.638 14.0689C198.363 14.8206 198.906 15.7184 199.268 16.7624C199.652 17.8064 199.844 18.9443 199.844 20.1762C199.844 21.429 199.652 22.5774 199.268 23.6214C198.906 24.6654 198.363 25.5632 197.638 26.3149C196.935 27.0665 196.061 27.6616 195.017 28.1001C193.994 28.5177 192.822 28.7265 191.501 28.7265ZM191.501 25.9077C192.311 25.9077 193.014 25.7407 193.611 25.4066C194.208 25.0725 194.698 24.634 195.081 24.0912C195.465 23.5483 195.742 22.9428 195.912 22.2746C196.104 21.5856 196.2 20.8861 196.2 20.1762C196.2 19.4872 196.104 18.7982 195.912 18.1091C195.742 17.4201 195.465 16.8146 195.081 16.2926C194.698 15.7497 194.208 15.3113 193.611 14.9772C193.014 14.6431 192.311 14.4761 191.501 14.4761C190.692 14.4761 189.988 14.6431 189.392 14.9772C188.795 15.3113 188.305 15.7497 187.921 16.2926C187.538 16.8146 187.25 17.4201 187.058 18.1091C186.888 18.7982 186.803 19.4872 186.803 20.1762C186.803 20.8861 186.888 21.5856 187.058 22.2746C187.25 22.9428 187.538 23.5483 187.921 24.0912C188.305 24.634 188.795 25.0725 189.392 25.4066C189.988 25.7407 190.692 25.9077 191.501 25.9077Z" fill="#EAEAEA"/>
<path d="M176.312 5.92583H179.956V9.30834H176.312V5.92583ZM176.312 12.0958H179.956V28.288H176.312V12.0958Z" fill="#EAEAEA"/>
<path d="M172.242 28.288H168.79V26.0956H168.726C168.236 27.0352 167.522 27.7138 166.584 28.1314C165.647 28.5281 164.656 28.7265 163.612 28.7265C162.312 28.7265 161.172 28.5072 160.192 28.0687C159.233 27.6094 158.434 26.9934 157.794 26.2209C157.155 25.4483 156.676 24.5401 156.356 23.4961C156.036 22.4312 155.877 21.2933 155.877 20.0823C155.877 18.6207 156.079 17.3575 156.484 16.2926C156.889 15.2277 157.421 14.3508 158.082 13.6618C158.764 12.9727 159.531 12.4716 160.383 12.1584C161.257 11.8243 162.141 11.6573 163.036 11.6573C163.548 11.6573 164.07 11.7095 164.603 11.8139C165.135 11.8974 165.647 12.0436 166.137 12.2524C166.627 12.4612 167.074 12.7326 167.479 13.0667C167.906 13.3799 168.257 13.7557 168.534 14.1942H168.598V5.92583H172.242V28.288ZM159.52 20.3641C159.52 21.0532 159.606 21.7318 159.776 22.3999C159.968 23.0681 160.245 23.6631 160.607 24.1851C160.991 24.7071 161.47 25.1247 162.046 25.4379C162.621 25.7511 163.303 25.9077 164.091 25.9077C164.901 25.9077 165.594 25.7407 166.169 25.4066C166.766 25.0725 167.245 24.634 167.607 24.0912C167.991 23.5483 168.268 22.9428 168.438 22.2746C168.63 21.5856 168.726 20.8861 168.726 20.1762C168.726 18.3806 168.31 16.9816 167.479 15.9794C166.67 14.9772 165.562 14.4761 164.155 14.4761C163.303 14.4761 162.578 14.6535 161.982 15.0085C161.406 15.3426 160.927 15.7915 160.543 16.3552C160.181 16.8981 159.915 17.5245 159.744 18.2344C159.595 18.9234 159.52 19.6334 159.52 20.3641Z" fill="#EAEAEA"/>
<path d="M152.833 28.288H149.253V26.033H149.189C148.742 26.8473 148.07 27.505 147.175 28.0061C146.302 28.4863 145.407 28.7265 144.491 28.7265C142.317 28.7265 140.74 28.2045 139.76 27.1605C138.801 26.0956 138.322 24.4983 138.322 22.3686V12.0958H141.965V22.0241C141.965 23.4439 142.242 24.4461 142.796 25.0308C143.351 25.6154 144.128 25.9077 145.13 25.9077C145.897 25.9077 146.536 25.7929 147.048 25.5632C147.559 25.3335 147.975 25.0308 148.294 24.6549C148.614 24.2582 148.838 23.7884 148.965 23.2455C149.115 22.7027 149.189 22.118 149.189 21.4916V12.0958H152.833V28.288Z" fill="#EAEAEA"/>
<path d="M126.015 12.0958H128.764V7.24125H132.408V12.0958H135.7V14.7579H132.408V23.4021C132.408 23.778 132.419 24.1016 132.44 24.373C132.483 24.6445 132.557 24.8742 132.664 25.0621C132.792 25.25 132.973 25.3961 133.207 25.5005C133.442 25.5841 133.761 25.6258 134.166 25.6258C134.422 25.6258 134.677 25.6258 134.933 25.6258C135.189 25.6049 135.445 25.5632 135.7 25.5005V28.2567C135.295 28.2984 134.901 28.3402 134.518 28.3819C134.134 28.4237 133.74 28.4446 133.335 28.4446C132.376 28.4446 131.598 28.3611 131.002 28.194C130.426 28.0061 129.968 27.7451 129.627 27.411C129.308 27.0561 129.084 26.6176 128.956 26.0956C128.849 25.5736 128.786 24.9786 128.764 24.3104V14.7579H126.015V12.0958Z" fill="#EAEAEA"/>
<path d="M110.083 20.8339C110.083 21.69 110.233 22.4208 110.531 23.0263C110.829 23.6318 111.245 24.1329 111.778 24.5296C112.31 24.9055 112.918 25.1874 113.599 25.3753C114.303 25.5423 115.059 25.6258 115.869 25.6258C116.743 25.6258 117.488 25.5319 118.106 25.344C118.724 25.1352 119.225 24.8742 119.609 24.561C119.992 24.2478 120.269 23.8928 120.44 23.4961C120.61 23.0785 120.695 22.6609 120.695 22.2433C120.695 21.3872 120.493 20.7609 120.088 20.3641C119.705 19.9465 119.278 19.6542 118.81 19.4872C118 19.1949 117.052 18.9234 115.965 18.6729C114.899 18.4014 113.578 18.0569 112.001 17.6393C111.021 17.3888 110.201 17.0651 109.54 16.6684C108.901 16.2508 108.389 15.7915 108.006 15.2904C107.622 14.7893 107.345 14.2568 107.175 13.6931C107.026 13.1293 106.951 12.5551 106.951 11.9705C106.951 10.843 107.185 9.87209 107.654 9.05778C108.144 8.2226 108.784 7.53357 109.572 6.99069C110.36 6.44782 111.255 6.05111 112.257 5.80055C113.259 5.52911 114.271 5.3934 115.294 5.3934C116.487 5.3934 117.606 5.54999 118.65 5.86319C119.715 6.15551 120.642 6.60442 121.431 7.20993C122.24 7.81544 122.88 8.56711 123.348 9.46494C123.817 10.3419 124.052 11.365 124.052 12.5343H120.056C119.95 11.0936 119.449 10.0809 118.554 9.49626C117.659 8.89075 116.519 8.58799 115.134 8.58799C114.665 8.58799 114.185 8.64019 113.695 8.74459C113.205 8.82811 112.758 8.98471 112.353 9.21438C111.948 9.42318 111.607 9.71549 111.33 10.0913C111.074 10.4672 110.946 10.937 110.946 11.5007C110.946 12.2941 111.192 12.9205 111.682 13.3799C112.193 13.8184 112.854 14.1524 113.663 14.3821C113.749 14.403 114.079 14.4969 114.654 14.664C115.251 14.8101 115.911 14.9772 116.636 15.1651C117.361 15.353 118.064 15.5409 118.746 15.7288C119.449 15.8959 119.95 16.0212 120.248 16.1047C120.994 16.3344 121.644 16.6476 122.198 17.0443C122.752 17.441 123.21 17.9003 123.572 18.4223C123.956 18.9234 124.233 19.4663 124.403 20.0509C124.595 20.6356 124.691 21.2202 124.691 21.8048C124.691 23.0576 124.424 24.1329 123.892 25.0308C123.38 25.9077 122.698 26.628 121.846 27.1918C120.994 27.7556 120.024 28.1627 118.937 28.4133C117.851 28.6847 116.743 28.8204 115.613 28.8204C114.313 28.8204 113.088 28.6638 111.937 28.3506C110.787 28.0374 109.785 27.5572 108.933 26.9099C108.08 26.2627 107.399 25.4379 106.887 24.4357C106.376 23.4126 106.109 22.212 106.088 20.8339H110.083Z" fill="#EAEAEA"/>
<path d="M93.9568 5.92583H97.6007V28.288H93.9568V5.92583Z" fill="#EAEAEA"/>
<path d="M81.3452 12.0958H84.7653V15.2277H84.8292C84.9358 14.7893 85.1382 14.3612 85.4365 13.9436C85.7562 13.526 86.1291 13.1502 86.5553 12.8161C87.0028 12.4612 87.4929 12.1793 88.0256 11.9705C88.5583 11.7617 89.1017 11.6573 89.6557 11.6573C90.0819 11.6573 90.3696 11.6677 90.5188 11.6886C90.6892 11.7095 90.8597 11.7304 91.0302 11.7513V15.1964C90.7745 15.1547 90.5081 15.1233 90.2311 15.1025C89.9754 15.0607 89.7197 15.0398 89.464 15.0398C88.846 15.0398 88.26 15.1651 87.706 15.4157C87.1732 15.6453 86.7044 16.0003 86.2996 16.4805C85.8947 16.9399 85.5751 17.5141 85.3407 18.2031C85.1063 18.8921 84.9891 19.6856 84.9891 20.5834V28.288H81.3452V12.0958Z" fill="#EAEAEA"/>
<path d="M67.7604 12.0958H70.5093V7.24125H74.1531V12.0958H77.4454V14.7579H74.1531V23.4021C74.1531 23.778 74.1638 24.1016 74.1851 24.373C74.2277 24.6445 74.3023 24.8742 74.4089 25.0621C74.5367 25.25 74.7178 25.3961 74.9522 25.5005C75.1866 25.5841 75.5063 25.6258 75.9111 25.6258C76.1669 25.6258 76.4226 25.6258 76.6783 25.6258C76.934 25.6049 77.1897 25.5632 77.4454 25.5005V28.2567C77.0405 28.2984 76.6463 28.3402 76.2627 28.3819C75.8792 28.4237 75.485 28.4446 75.0801 28.4446C74.1212 28.4446 73.3434 28.3611 72.7467 28.194C72.1714 28.0061 71.7133 27.7451 71.3723 27.411C71.0527 27.0561 70.8289 26.6176 70.7011 26.0956C70.5945 25.5736 70.5306 24.9786 70.5093 24.3104V14.7579H67.7604V12.0958Z" fill="#EAEAEA"/>
<path d="M60.9944 13.0354C60.8239 12.3881 60.5895 11.793 60.2912 11.2502C59.9929 10.7073 59.6093 10.2375 59.1405 9.84077C58.6717 9.44406 58.1177 9.1413 57.4784 8.93251C56.8604 8.70283 56.1359 8.58799 55.3049 8.58799C54.0902 8.58799 53.0354 8.82811 52.1405 9.30834C51.2668 9.78857 50.5529 10.4358 49.9989 11.2502C49.4449 12.0436 49.0293 12.9518 48.7523 13.975C48.4966 14.9981 48.3688 16.042 48.3688 17.1069C48.3688 18.1718 48.4966 19.2158 48.7523 20.2389C49.0293 21.262 49.4449 22.1807 49.9989 22.995C50.5529 23.7884 51.2668 24.4252 52.1405 24.9055C53.0354 25.3857 54.0902 25.6258 55.3049 25.6258C56.1998 25.6258 56.9883 25.4797 57.6702 25.1874C58.3521 24.8742 58.9381 24.4566 59.4282 23.9346C59.9183 23.3917 60.3018 22.7653 60.5788 22.0554C60.8559 21.3455 61.037 20.5834 61.1222 19.7691H65.0218C64.9366 21.1054 64.6382 22.3268 64.1268 23.4335C63.6367 24.5401 62.9655 25.5005 62.1131 26.3149C61.2607 27.1083 60.2592 27.7242 59.1085 28.1627C57.9578 28.6012 56.6899 28.8204 55.3049 28.8204C53.6001 28.8204 52.0659 28.5177 50.7021 27.9122C49.3596 27.2858 48.2196 26.4401 47.282 25.3753C46.3444 24.3104 45.6199 23.0681 45.1085 21.6482C44.6184 20.2284 44.3733 18.7146 44.3733 17.1069C44.3733 15.5201 44.6184 14.0167 45.1085 12.5969C45.6199 11.1771 46.3444 9.93473 47.282 8.86987C48.2196 7.805 49.3596 6.95937 50.7021 6.33298C52.0659 5.70659 53.6001 5.3934 55.3049 5.3934C56.5834 5.3934 57.7874 5.57088 58.9167 5.92583C60.0461 6.2599 61.037 6.76102 61.8894 7.42917C62.763 8.07644 63.4662 8.86987 63.999 9.80945C64.5317 10.749 64.862 11.8243 64.9898 13.0354H60.9944Z" fill="#EAEAEA"/>
<path d="M23.0719 6.53828H9.4587C7.77733 6.53828 6.41432 7.92281 6.41432 9.63072V23.4588C6.41432 25.1667 7.77733 26.5512 9.4587 26.5512H23.0719C24.7532 26.5512 26.1162 25.1667 26.1162 23.4588V9.63072C26.1162 7.92281 24.7532 6.53828 23.0719 6.53828Z" fill="#141414"/>
<path d="M16.265 26.5507C21.7054 26.5507 26.1157 22.0708 26.1157 16.5445C26.1157 11.0182 21.7054 6.53828 16.265 6.53828C10.8246 6.53828 6.41432 11.0182 6.41432 16.5445C6.41432 22.0708 10.8246 26.5507 16.265 26.5507Z" fill="#EAEAEA"/>
</svg>

<svg xmlns="http://www.w3.org/2000/svg" width="200" height="33" fill="none"><path fill="#EAEAEA" d="M32.182 16.57c0 8.959-7.11 16.22-15.882 16.22S.418 25.53.418 16.57 7.528.35 16.3.35s15.882 7.262 15.882 16.22M191.501 28.727q-1.982 0-3.548-.627a7.9 7.9 0 0 1-2.621-1.785q-1.054-1.128-1.63-2.694-.543-1.566-.543-3.445 0-1.848.543-3.414.576-1.566 1.63-2.693a7.6 7.6 0 0 1 2.621-1.754q1.566-.657 3.548-.658 1.982 0 3.516.658 1.566.627 2.621 1.754a7.2 7.2 0 0 1 1.63 2.693q.576 1.566.576 3.414 0 1.88-.576 3.445a7.2 7.2 0 0 1-1.63 2.694q-1.055 1.128-2.621 1.785-1.534.627-3.516.627m0-2.82q1.215 0 2.11-.5a4.4 4.4 0 0 0 1.47-1.316 5.4 5.4 0 0 0 .831-1.816 7.67 7.67 0 0 0 0-4.165 5.1 5.1 0 0 0-.831-1.817 4.4 4.4 0 0 0-1.47-1.316q-.895-.5-2.11-.5t-2.109.5a4.4 4.4 0 0 0-1.471 1.316 5.6 5.6 0 0 0-.863 1.816 8.6 8.6 0 0 0 0 4.166 6 6 0 0 0 .863 1.816q.576.815 1.471 1.316.895.5 2.109.5M176.312 5.926h3.644v3.382h-3.644zm0 6.17h3.644v16.192h-3.644zM172.242 28.288h-3.452v-2.192h-.064q-.735 1.41-2.142 2.035a7.55 7.55 0 0 1-2.972.596q-1.95 0-3.42-.658a7 7 0 0 1-2.398-1.848q-.958-1.158-1.438-2.725a11.8 11.8 0 0 1-.479-3.414q0-2.191.607-3.79.607-1.596 1.598-2.63a6.25 6.25 0 0 1 2.301-1.504 7.4 7.4 0 0 1 2.653-.5q.768 0 1.567.156.799.125 1.534.438.735.314 1.342.815a4.1 4.1 0 0 1 1.055 1.127h.064V5.926h3.644zm-12.722-7.924q0 1.034.256 2.036.288 1.002.831 1.785.576.783 1.439 1.253t2.045.47q1.215 0 2.078-.501a4.1 4.1 0 0 0 1.438-1.316 5.4 5.4 0 0 0 .831-1.816 7.8 7.8 0 0 0 .288-2.099q0-2.693-1.247-4.197-1.213-1.503-3.324-1.503-1.278 0-2.173.532a4.4 4.4 0 0 0-1.439 1.347 5.8 5.8 0 0 0-.799 1.88 10 10 0 0 0-.224 2.13M152.833 28.288h-3.58v-2.255h-.064q-.671 1.221-2.014 1.973-1.31.72-2.684.72-3.261 0-4.731-1.565-1.438-1.598-1.438-4.792V12.096h3.643v9.928q0 2.13.831 3.007.832.877 2.334.877 1.15 0 1.918-.345.767-.344 1.246-.908.48-.596.671-1.41.225-.813.224-1.753v-9.396h3.644zM126.015 12.096h2.749V7.24h3.644v4.855h3.292v2.662h-3.292v8.644q0 .564.032.971.064.407.224.69.192.28.543.438.352.125.959.125h.767q.384-.031.767-.126v2.757q-.608.062-1.182.125-.576.063-1.183.063-1.439 0-2.333-.251-.864-.282-1.375-.783a3 3 0 0 1-.671-1.315 11 11 0 0 1-.192-1.786v-9.552h-2.749zM110.083 20.834q0 1.284.448 2.192a4.1 4.1 0 0 0 1.247 1.504q.799.563 1.821.845 1.056.25 2.27.25 1.31 0 2.237-.281.927-.313 1.503-.783a2.8 2.8 0 0 0 .831-1.065 3.3 3.3 0 0 0 .255-1.253q0-1.284-.607-1.879-.575-.627-1.278-.877a25 25 0 0 0-2.845-.814 445 445 0 0 1-3.964-1.034q-1.47-.376-2.461-.97-.959-.627-1.534-1.379a5 5 0 0 1-.831-1.597 6.7 6.7 0 0 1-.224-1.723q0-1.69.703-2.912a6.4 6.4 0 0 1 1.918-2.067 8.2 8.2 0 0 1 2.685-1.19 11.6 11.6 0 0 1 3.037-.408q1.79 0 3.356.47 1.597.439 2.781 1.347a6.6 6.6 0 0 1 1.917 2.255q.704 1.315.704 3.07h-3.996q-.16-2.162-1.502-3.039-1.343-.908-3.42-.908-.704 0-1.439.157-.735.125-1.342.47a2.9 2.9 0 0 0-1.023.876q-.384.564-.384 1.41 0 1.19.736 1.879.767.657 1.981 1.002.129.031.991.282a152 152 0 0 1 4.092 1.065q1.055.25 1.502.376 1.119.345 1.95.94a5.7 5.7 0 0 1 1.374 1.377q.576.752.831 1.629.288.878.288 1.754 0 1.88-.799 3.226a6.5 6.5 0 0 1-2.046 2.16q-1.278.847-2.909 1.222a13.7 13.7 0 0 1-3.324.407q-1.95 0-3.676-.47-1.725-.47-3.004-1.44a7.1 7.1 0 0 1-2.046-2.474q-.767-1.535-.799-3.602zM93.957 5.926H97.6v22.362h-3.644zM81.345 12.096h3.42v3.132h.064q.16-.658.608-1.284.48-.627 1.118-1.128a5.7 5.7 0 0 1 1.47-.846 4.4 4.4 0 0 1 1.63-.313q.64 0 .864.032l.511.062v3.445a9 9 0 0 0-.799-.094 5 5 0 0 0-.767-.062q-.927 0-1.758.376A3.8 3.8 0 0 0 86.3 16.48q-.608.69-.96 1.723-.35 1.035-.35 2.38v7.705h-3.645zM67.76 12.096h2.75V7.24h3.643v4.855h3.292v2.662h-3.292v8.644q0 .564.032.971.064.407.224.69.192.28.543.438.352.125.96.125h.766a5 5 0 0 0 .767-.126v2.757q-.607.062-1.182.125a11 11 0 0 1-1.183.063q-1.439 0-2.333-.251-.864-.282-1.375-.783a3 3 0 0 1-.67-1.315 10.7 10.7 0 0 1-.193-1.786v-9.552H67.76zM60.994 13.035a7.8 7.8 0 0 0-.703-1.785 5 5 0 0 0-1.15-1.41 4.9 4.9 0 0 0-1.663-.907q-.927-.345-2.173-.345-1.823 0-3.164.72a6.1 6.1 0 0 0-2.142 1.942 8.7 8.7 0 0 0-1.247 2.725 12.9 12.9 0 0 0-.383 3.132q0 1.598.383 3.132A9.1 9.1 0 0 0 50 22.995a6.2 6.2 0 0 0 2.142 1.91q1.342.72 3.164.72 1.342 0 2.365-.438a5.6 5.6 0 0 0 1.758-1.252q.735-.815 1.15-1.88.417-1.065.544-2.286h3.9q-.128 2.004-.895 3.665a9 9 0 0 1-2.014 2.88 9.1 9.1 0 0 1-3.004 1.849q-1.727.657-3.804.657-2.558 0-4.603-.908a10.3 10.3 0 0 1-3.42-2.537q-1.407-1.597-2.173-3.727-.735-2.13-.736-4.541 0-2.38.736-4.51.766-2.13 2.173-3.727a10.3 10.3 0 0 1 3.42-2.537q2.046-.94 4.603-.94 1.917 0 3.612.533 1.695.501 2.972 1.503A7.6 7.6 0 0 1 64 9.81q.8 1.41.99 3.226z"/><path fill="#141414" d="M23.072 6.538H9.459c-1.682 0-3.045 1.385-3.045 3.093v13.828c0 1.708 1.363 3.092 3.045 3.092h13.613c1.681 0 3.044-1.384 3.044-3.092V9.63c0-1.708-1.363-3.093-3.044-3.093"/><path fill="#EAEAEA" d="M16.265 26.55c5.44 0 9.85-4.48 9.85-10.006s-4.41-10.006-9.85-10.006-9.85 4.48-9.85 10.006c0 5.527 4.41 10.007 9.85 10.007"/></svg>
